X:2031
L:1/8
M:2/2
K:Bb
 (B,>.D)(F>.B) d>fb>f | d>fB>d F>BD>F | C>FA>c e>cA>c | B>dc>B A>FE>C | B,>DF>B d>fb>f | 
 d>fB>d F>BD>F | C>FA>c e>cA>c | B2 d2 B2 z2 :: f2 | (a>.g)(e>.c) A>cf>a | b>fd>B F>Bd>f | 
 g>ec>g f>dB>f | e>cd>B A>FA>c | a>ge>c A>cf>a | b>fd>B F>Bd>f | g>ab>g f>bA>c |1 B2 d2 B2 :|2 
 B2 d2 B2 z2 ||

